X:9
T:No catchee no havee. Ru1.009
%%VWML:RutherfordVol1-2248-p5-0p5
Z:Transcription by Village Music Project, Steve Mansfield July 2015
F:http://www.village-music-project.org.uk/
F:http://www.vwml.org/record/RutherfordVol1/2248/p5
L:1/8
W:First Man turns the 2d Wo. with his right Hand his
W:Patner with his Left .| The Wo. turns the 2d Man with
W:Her right Hand & her Partner with her Left :| Cross over
W:& half Figure .|. Lead thro' the 3d Cu. & cast up & turn your
W:Partner :||: Hands round all six :|| Right Hand & Left at Top :|
Q:3/8=90
K:G
|:G2c (B/c/)dB | G2c B2A | G2c (B/c/)dB | AFD AFD |
G2c (B/c/)dB | G2c B2A | cec BdB | AFD AFD :|
|: GAB cGE | cGE cGE | GAB cGE | AFD AFD |
GAB cGE | cGE cGE | cde dBG | AFD AFD :|
|: def gdB | gdB gdB | def gdB | AFD AFD |
def gdB | gba gdB | (c/d/e)c (B/c/d)B | AFD AFD :|
T:Johnny Groat's House. Ru1.010
B:Rutherford's Country Dances Vol 1, 1756
Z:village music project, Steve Mansfield July 2015
M:2/4
L:1/8
W:The first Cu. Gallop down one Cu. & up again
W:and cast off .| The same with the 3d Cu. and
W:Cast off :| Hands round all six .|. Lead up
W:To the Top Foot it and cast off :|
Q:1/4=90
K:F
|:c | ff/f/ fa | ff/f/ fa | fgfe | G3 A |
FF/F/ FA | FF/F/ Ff | A2 G2 | F3 :|
|: A/B/ | c>dc>A | cc/c/ cf | f>gfa | g3 f/g/ |
a/a/a af | g/g/g gc | A2 G2 | F3 :|
